!!!!SEGMENT: pl-sa--530-a-ix-10--005_anonim--instrumental-piece.krn
!!!cenid: 17xx:2019
!!!COM: Anonim
!!!COM-rismid: pe30004985
!!!CDT:
!!!CNT:
!!!OTL: [Instrumental piece]
!!!PDT:
!!!AGN: Secular
!!!SMS-siglum: PL-SA
!!!SMS-shelfmark: 530/A IX 10
!!!SMS-shelfwork: 005 W
!!!SMS-variant:
!!!SMS-altvar:
!!!NIFC-rismid: 1001092507
!!!URL-scan: http://bc.bdsandomierz.pl/dlibra/publication/1422/edition/1390/content
!!!ONB-nifc: UWAGA: 5to
**kern	**kern	**kern
*part3	*part2	*part1
*staff3	*staff2	*staff1
*I"Baſso	*I"Violino 2do	*I"Violino Primo
*I'bc	*I'vl 2	*I'vl 1
*	*Ivioln	*Ivioln
*	*ICstr	*ICstr
*IGcont	*	*
*clefF4	*clefG2	*clefG2
*Trd0c0	*	*
*k[f#]	*k[f#]	*k[f#]
*G:	*G:	*G:
*M3/8	*M3/8	*M3/8
=1	=1	=1
*all\right	*all\right	*all\right
!LO:TX:i:t=Allo	!LO:TX:i:t=allo	!
!LO:TX:i:t=5tum	!LO:TX:i:t=5tum	!LO:TX:i:t=5to
4G\	8gg/L 8b/ 8d/	8gg/L 8b/ 8d/ 8G/
.	8b/	8dd/
8r	8b/J	8dd/J
=2	=2	=2
8GG/L	4b/	4dd\
8BB/	.	.
8D/J	8g/	8b\
=3	=3	=3
4G\	8b\L	8dd\L
.	8g\	8b\
8r	8g\J	8b\J
=4	=4	=4
8GG/L	4g/	4b/
8D/	.	.
8G/J	8G/	8g/
=5	=5	=5
!LO:TX:t=P:problem:mixed beam	!	!
8G\L	8d/L 8B/	16a/LL
.	.	16g/JJ
8GG/	8d/ 8B/	8.b/L
8G\J	8d/J 8B/	.
.	.	16g/Jk
=6	=6	=6
*	*tremolo	*
8G\L	8d/L 8B/	16a\LL
.	.	16g\
8G\	8d/ 8B/	16b\
.	.	16cc#X\J
8G\J	8d/J 8B/	8dd\J
=7	=7	=7
*tremolo	*	*
8G\L	8d/L 8B/	16a/LL
.	.	16g/JJ
8G\	8d/ 8B/	8.b/L
8G\J	8d/J 8B/	.
.	.	16g/Jk
!	!	!LO:LB:g=original
=8	=8	=8
8G\L	8d/L 8B/	16f#/LL
.	.	16d/
8G\	8d/ 8B/	16e/
.	.	16f#/J
8G\J	8d/J 8B/	8g/J
*Xtremolo	*	*
=9	=9	=9
!LO:TX:t=P:problem:mixed beam	!	!LO:TX:t=P:problem:takty 9-12 zapisane repetycją
8G\L	8d/L 8B/	16a/LLyy
.	.	16g/JJyy
8GG/	8d/ 8B/	8.b/Lyy
8G\J	8d/J 8B/	.
.	.	16g/Jkyy
=10	=10	=10
8G\L	8d/L 8B/	16a\LLyy
.	.	16g\yy
8G\	8d/ 8B/	16b\yy
.	.	16cc#X\Jyy
8G\J	8d/J 8B/	8dd\Jyy
!	!LO:LB:g=original	!
=11	=11	=11
*tremolo	*	*
8G\L	8d/L 8B/	16a/LLyy
.	.	16g/JJyy
8G\	8d/ 8B/	8.b/Lyy
8G\J	8d/J 8B/	.
.	.	16g/Jkyy
=12	=12	=12
8G\L	8d/L 8B/	16f#/LLyy
.	.	16d/yy
8G\	8d/ 8B/	16e/yy
.	.	16f#/Jyy
8G\J	8d/J 8B/	8g/Jyy
*Xtremolo	*Xtremolo	*
=13	=13	=13
4G\	16b-X\LL	16dd\LL
.	16cc\	16ee-X\
.	16b-\	16dd\
.	16a\	16cc\
8r	16g\	16b-X\
.	16f#\JJ	16a\JJ
=14	=14	=14
8G\L	8g/L	8b-X/L
8B-X\	8G/	8g/
8d\J	8g/J	8g/J
!LO:LB:g=original	!	!
=15	=15	=15
4G\	16b-X\LL	16dd\LL
.	16cc\	16ee-X\
.	16b-\	16dd\
.	16a\	16cc\
8r	16g\	16b-X\
.	16f#\JJ	16a\JJ
=16	=16	=16
!	!	!LO:TX:t=P:problem:mixed beam
8G\L	8g/	16b\LL
.	.	16dd\J
8B-X\	4G/	8g/
8d\J	.	8G/J
=17	=17	=17
!	!LO:TX:t=P:problem:takty 17-20 zapisane repetycją	!LO:TX:t=P:problem:takty 17-20 zapisane repetycją
4G\	16b-X\LLyy	16dd\LLyy
.	16cc\yy	16ee-X\yy
.	16b-\yy	16dd\yy
.	16a\yy	16cc\yy
8r	16g\yy	16b-X\yy
.	16f#\JJyy	16a\JJyy
=18	=18	=18
8G\L	8g/Lyy	8b-X/Lyy
8B-X\	8G/yy	8g/yy
8d\J	8g/Jyy	8g/Jyy
=19	=19	=19
4G\	16b-X\LLyy	16dd\LLyy
.	16cc\yy	16ee-X\yy
.	16b-\yy	16dd\yy
.	16a\yy	16cc\yy
8r	16g\yy	16b-X\yy
.	16f#\JJyy	16a\JJyy
=20	=20	=20
!	!	!LO:TX:t=P:problem:mixed beam
8G\L	8g/yy	16b\LLyy
.	.	16dd\Jyy
8B-X\	4G/yy	8g/yy
8d\J	.	8G/Jyy
=21	=21	=21
!	!	!
4D\	16ffn\LL	16aa\LL
.	16gg\	16bb-X\
.	16ff\	16aa\
.	16ee\	16gg\
8r	16dd\	16ffn\
.	16cc#X\JJ	16ee\JJ
=22	=22	=22
!	!LO:TX:t=P:problem:mixed beam	!
8D\L	8dd\L	8ffn\L
8Fn\	8d/	8dd\
8A\J	8dd\J	8dd\J
=23	=23	=23
4D\	16ffn\LL	16aa\LL
.	16gg\	16bb-X\
.	16ff\	16aa\
.	16ee\	16gg\
!	!	!LO:SIC:v:s=16ff\
8r	16dd\	16ff#\
.	16cc#X\JJ	16ee\JJ
=24	=24	=24
8D\L	8dd\	8ffn\
8Fn\	4d/	4dd\
8A\J	.	.
=25	=25	=25
!	!LO:TX:t=P:problem:takty 25-28 zapisane repetycją	!LO:TX:t=P:problem:takty 25-28 zapisane repetycją
4d\	16ffn\LLyy	16aa\LLyy
.	16gg\yy	16bb-X\yy
.	16ff\yy	16aa\yy
.	16ee\yy	16gg\yy
8r	16dd\yy	16ffn\yy
.	16cc#X\JJyy	16ee\JJyy
=26	=26	=26
!	!LO:TX:t=P:problem:mixed beam	!
8D\L	8dd\Lyy	8ffn\Lyy
8Fn\	8d/yy	8dd\yy
8A\J	8dd\Jyy	8dd\Jyy
=27	=27	=27
4D\	16ffn\LLyy	16aa\LLyy
.	16gg\yy	16bb-X\yy
.	16ff\yy	16aa\yy
.	16ee\yy	16gg\yy
!	!	!LO:SIC:v:s=16ff\
8r	16dd\yy	16ff#\yy
.	16cc#X\JJyy	16ee\JJyy
=28	=28	=28
8D\L	8dd\yy	8ffn\yy
8A\	4d/yy	4dd\yy
8d\J	.	.
!LO:LB:g=original	!	!
=29	=29	=29|
*k[f#c#]	*k[f#c#]	*k[f#c#]
*M2/4	*M2/4	*M2/4
*2\right	*	*
!LO:TX:i:t=Largo	!	!
2A\	8.cc#\L	8.ee\L
.	16a\Jk	16dd\Jk
.	4ee\	4gg\
=30	=30	=30
4A\	8dd\	8ff#\
.	8r	8r
4r	8a/	8dd\
.	8r	8r
=31	=31	=31
2A\	8a\L	8ee\L
.	8dd\J	8dd\J
.	4ff#\	4aa\
!	!LO:LB:g=original	!LO:LB:g=original
=32	=32	=32
2A\	8.cc#\L	8.ee\L
.	16a\Jk	16dd\Jk
.	4ee\	4gg\
=33	=33	=33
4A\	8dd\	8ff#\
.	8r	8r
4r	8a/	8dd\
.	8r	8r
=34	=34	=34
4AA/	4g/	4ee\
4A\	8g/L	8cc#\L
.	8e/J	8a\J
=35	=35	=35
8D\L	8f#/L	8dd\L
8d\	8a/	8ff#\
8D\	8dd/	8dd\
8d\J	8ff#/J	8aa\J
=36	=36	=36
8D\L	8f#/L	8dd\L
8d\	8a/	8ff#\
8D\	8dd/	8dd\
8d\J	8ff#/J	8aa\J
=37	=37	=37
4D\	4dd\	4dd\
4r	4r	4r
==	==	==
*-	*-	*-
!!!system-decoration: [(*)]
!!!AIN: 2 violn
!!!ENC: Andrzej Gręziak
!!!END: 2021-05-28
!!!EED: Andrzej Borzym
!!!EST: 2022-01-13
